X: 89
T: The Regatta
%R: jig
B: Chas & Sam Thompson "Twenty Four Country Dances for the Year 1776", London 1776, p.45 #1
F: http://www.vwml.org/browse/browse-collections-dance-tune-books/browse-thompsons1776#
Z: 2014 John Chambers <jc:trillian.mit.edu> (added dance description)
M: 6/8
L: 1/8
K: A
% - - - - - - - - - - - - - - - - - - - - - - - - - - - - -
A/G/ |\
AGA EGA | TBAB EAB | cdc BcA | {^d}e2e e2E |\
AGA EGA | TBAB EAB | cdc Bec | A2A A2 :|
|: c/d/ |\
ecA Ace | agf ede | fed cBA | GAB Bcd |\
ecA Ace | agf ede | fed cBA | EAG A2 :|
% - - - - - - - - - - Dance description - - - - - - - - - -
%%begintext align
%% Hey contrary sides .| the same on your own sides .|
%% lead down up again & cast off .|| lead out sides :||
%%endtext

%%sep 1 1 500
%%sep 1 1 500
